X: 40899
T: Trim The Velvet
R: reel
M: 4/4
K: Dmixolydian
FDAG FD3|FDAF GE3|FDAG FADB|=cB=cA GEAG|
FDAG FD3|FDAF GE3|FDAG FADB|=cB=cA GEAG|
D3G EFGE|AB=cA GE=cG|D3G EFGE|AB=cA GE=cG|
D3G EFGE|AB=cA GE=cG|D3G EFGE|AB=cA GE=cG|
Add=c A3G|AA=cA GE=cG|Add=c A3G|AA=cA GE=cG|
A3G AD3|AA=cA GE=cG|Add=c A3G|AA=cA GE=cG|
dcde fded|Adef ge3|3(Bcd) ed cedc|dBAF GE3|
dcde fded|Adef fgfe|dged cedc|dBAF GEAG|

